bus.svg

<?xml version="1.0" encoding="UTF-8" standalone="no"?>
<svg width="100" height="100" viewBox="0 0 500 500" version="1.1" xmlns="http://www.w3.org/2000/svg" xmlns:xlink="http://www.w3.org/1999/xlink">
	<title>Signet Bus</title>
	<desc>https://commons.wikimedia.org/wiki/File:BUS-Logo-BVG.svg</desc>
	<g id="bus" fill-rule="evenodd" transform="scale(.2)">
		<circle cx="250.5" cy="250.5" r="250" fill="#993399"/>
		<path d="M474.625529,281.603209 C474.625398,297.954449 468.538152,311.258382 456.363789,321.51503 C444.254295,331.697376 427.782942,336.788544 406.949672,336.788544 C394.905338,336.788544 384.391016,335.599368 375.40667,333.221014 C366.48737,330.768327 358.121483,327.683902 350.308989,323.967706 L350.308989,284.167368 L354.410559,284.167368 C362.15794,291.22816 370.81679,296.653789 380.387148,300.444265 C390.022524,304.234794 399.267319,306.130053 408.121554,306.130021 C410.400128,306.130053 413.39492,305.907076 417.105938,305.46111 C420.816796,305.015198 423.844139,304.271966 426.187976,303.231401 C429.052477,301.893601 431.39623,300.221319 433.219234,298.214555 C435.107163,296.207845 436.051175,293.234903 436.051268,289.295708 C436.051175,285.653898 434.683985,282.532301 431.949699,279.930927 C429.280338,277.255327 425.341535,275.211423 420.133281,273.799216 C414.664455,272.312803 408.870181,270.937821 402.750458,269.674247 C396.695706,268.33649 390.999086,266.664208 385.660589,264.657401 C373.420964,260.123735 364.599347,253.992035 359.195719,246.262289 C353.857156,238.458393 351.187888,228.796323 351.187897,217.276048 C351.187888,201.816856 357.242574,189.218994 369.351984,179.482453 C381.52643,169.671888 397.151427,164.766526 416.227029,164.766355 C425.797265,164.766526 435.237369,165.844219 444.547371,167.999435 C453.922269,170.080671 462.027736,172.719152 468.863807,175.914912 L468.863807,214.154451 L464.859891,214.154451 C459.000393,208.803273 451.806386,204.343854 443.277845,200.776185 C434.814191,197.13446 426.15534,195.313534 417.301246,195.313395 C414.176174,195.313534 411.051167,195.573672 407.926235,196.093799 C404.866275,196.539872 401.904035,197.43176 399.039515,198.769453 C396.500388,199.884436 394.319402,201.593879 392.496538,203.897782 C390.673562,206.127619 389.762112,208.691789 389.762159,211.590281 C389.762112,215.975505 391.226956,219.35723 394.156691,221.735466 C397.086324,224.039615 402.620177,226.157841 410.758279,228.090144 C416.096748,229.35375 421.207423,230.580088 426.090321,231.769169 C431.038154,232.958452 436.344138,234.593563 442.008309,236.674531 C453.141015,240.836757 461.344145,246.522513 466.617708,253.731822 C471.956122,260.866968 474.625398,270.157416 474.625529,281.603209" fill="#fff"/>
		<path d="M323.062846,273.687732 C323.062705,294.201113 317.593955,309.920561 306.656586,320.846119 C295.718955,331.771699 279.605667,337.234488 258.316687,337.234488 C237.027538,337.234488 220.91426,331.771699 209.976788,320.846119 C199.104362,309.920561 193.668163,294.238274 193.668182,273.799216 L193.668182,167.776469 L231.363535,167.776469 L231.363535,271.34654 C231.363479,282.866761 233.479362,291.451137 237.711193,297.09969 C241.942903,302.748328 248.811395,305.572626 258.316687,305.572594 C267.691604,305.572626 274.527544,302.859811 278.824526,297.434151 C283.186395,292.008565 285.36739,283.312705 285.367493,271.34654 L285.367493,167.776469 L323.062846,167.776469 L323.062846,273.687732" fill="#fff"/>
		<path d="M167.789248,282.94103 C167.789098,290.968032 166.356805,298.140265 163.49236,304.457739 C160.692746,310.775277 156.819046,316.01509 151.87126,320.177198 C146.141967,325.082571 139.82686,328.575779 132.925929,330.656844 C126.089877,332.737909 117.398475,333.778441 106.851676,333.778441 L43.3750479,333.778441 L43.3750479,167.776469 L99.8204179,167.776469 C111.539097,167.776629 120.100294,168.222573 125.504044,169.11429 C130.972691,170.006338 136.376338,171.97592 141.714995,175.023024 C147.248736,178.219103 151.350296,182.529877 154.019694,187.955346 C156.753943,193.306802 158.121133,199.438492 158.121264,206.350468 C158.121133,214.377546 156.265662,221.475446 152.55485,227.6442 C148.843786,233.738846 143.602905,238.495554 136.83218,241.914354 L136.83218,242.806232 C146.337276,244.961715 153.856806,249.421133 159.390799,256.184498 C164.989624,262.948033 167.789098,271.866859 167.789248,282.94103 L167.789248,282.94103 L167.789248,282.94103 L167.789248,282.94103 L167.789248,282.94103 L167.789248,282.94103 L167.789248,282.94103 L167.789248,282.94103 L167.789248,282.94103 Z M128.922014,282.272119 C128.921911,276.995189 128.010451,272.944553 126.187634,270.120191 C124.429723,267.221635 121.40238,265.066248 117.105596,263.65403 C114.175813,262.687895 110.139356,262.167628 104.996205,262.093231 C99.8528945,262.018984 94.4818035,261.981823 88.8829092,261.981748 L80.6797755,261.981748 L80.6797755,303.342884 L83.4141534,303.342884 C93.9609706,303.342917 101.513057,303.305755 106.070432,303.231401 C110.627638,303.157111 114.826862,302.190901 118.668094,300.332771 C122.574252,298.474715 125.243529,296.022039 126.675915,292.974732 C128.173208,289.853178 128.921911,286.285647 128.922014,282.272119 L128.922014,282.272119 L128.922014,282.272119 L128.922014,282.272119 L128.922014,282.272119 L128.922014,282.272119 L128.922014,282.272119 L128.922014,282.272119 L128.922014,282.272119 Z M119.742321,214.711878 C119.742218,211.962031 119.123731,209.212055 117.88685,206.461952 C116.714875,203.712105 114.598992,201.668201 111.539182,200.330241 C108.804718,199.141203 105.386757,198.509453 101.285262,198.434992 C97.24873,198.286476 91.5521158,198.212154 84.1954037,198.212025 L80.6797755,198.212025 L80.6797755,233.329967 L86.5391564,233.329967 C92.4635748,233.330063 97.5091512,233.21858 101.675889,232.995507 C105.842478,232.772636 109.130242,232.029403 111.539182,230.765797 C114.924516,229.056461 117.138053,226.863913 118.179813,224.188153 C119.221385,221.438284 119.742218,218.279537 119.742321,214.711878 L119.742321,214.711878 L119.742321,214.711878 L119.742321,214.711878 L119.742321,214.711878 L119.742321,214.711878 L119.742321,214.711878 L119.742321,214.711878 L119.742321,214.711878 Z" fill="#fff"/>
	</g>
</svg>

<?xml version="1.0" encoding="UTF-8" standalone="no"?>
<svg width="100" height="100" xmlns="http://www.w3.org/2000/svg">
	<title>Signet Bus</title>
	<desc>https://commons.wikimedia.org/wiki/File:BUS-Logo-BVG.svg</desc>
	<g id="bus" fill-rule="evenodd" transform="scale(.2)">
		<circle cx="250.5" cy="250.5" r="250" fill="#939"/>
		<path d="M474.63 281.6c0 16.35-6.1 29.66-18.27 39.92-12.1 10.18-28.58 15.27-49.41 15.27-12.04 0-22.56-1.2-31.54-3.57a152.32 152.32 0 0 1-25.1-9.25v-39.8h4.1a84.47 84.47 0 0 0 25.98 16.27c9.63 3.8 18.88 5.69 27.73 5.69 2.28 0 5.27-.22 8.99-.67a32.1 32.1 0 0 0 9.08-2.23 21.82 21.82 0 0 0 7.03-5.02c1.89-2 2.83-4.98 2.83-8.91 0-3.65-1.37-6.77-4.1-9.37-2.67-2.67-6.6-4.72-11.82-6.13a289.71 289.71 0 0 0-17.38-4.13 125.44 125.44 0 0 1-17.09-5.01c-12.24-4.54-21.06-10.67-26.46-18.4-5.34-7.8-8.01-17.46-8.01-28.98 0-15.46 6.05-28.06 18.16-37.8 12.18-9.8 27.8-14.71 46.88-14.71 9.57 0 19 1.07 28.32 3.23 9.37 2.08 17.48 4.72 24.31 7.91v38.24h-4c-5.86-5.35-13.05-9.8-21.58-13.37a65.13 65.13 0 0 0-25.98-5.47c-3.12 0-6.25.26-9.37.78a31.72 31.72 0 0 0-8.89 2.68 16.98 16.98 0 0 0-6.54 5.13 11.8 11.8 0 0 0-2.74 7.69c0 4.39 1.47 7.77 4.4 10.15 2.93 2.3 8.46 4.42 16.6 6.35 5.34 1.26 10.45 2.49 15.33 3.68a144.1 144.1 0 0 1 15.92 4.9c11.13 4.17 19.33 9.85 24.6 17.06 5.35 7.14 8.02 16.43 8.02 27.87m-151.57-7.91c0 20.51-5.47 36.23-16.4 47.16-10.94 10.92-27.05 16.38-48.34 16.38-21.3 0-37.4-5.46-48.34-16.38-10.88-10.93-16.31-26.61-16.31-47.05V167.78h37.7v103.57c0 11.52 2.1 20.1 6.34 25.75 4.23 5.65 11.1 8.47 20.6 8.47 9.38 0 16.22-2.71 20.51-8.14 4.37-5.42 6.55-14.12 6.55-26.08V167.78h37.7v105.9m-155.28 9.26c0 8.03-1.43 15.2-4.3 21.52a42.89 42.89 0 0 1-11.62 15.72 51.99 51.99 0 0 1-18.94 10.48c-6.84 2.08-15.53 3.12-26.08 3.12H43.38v-166h56.44c11.72 0 20.28.44 25.68 1.33 5.47.9 10.88 2.87 16.21 5.91a30.07 30.07 0 0 1 12.31 12.94c2.73 5.35 4.1 11.48 4.1 18.39 0 8.03-1.85 15.13-5.57 21.3a37.97 37.97 0 0 1-15.72 14.26v.9c9.5 2.15 17.03 6.61 22.56 13.37 5.6 6.77 8.4 15.69 8.4 26.76zm-38.87-.67c0-5.27-.91-9.33-2.73-12.15-1.76-2.9-4.79-5.05-9.08-6.47-2.93-.96-6.97-1.48-12.11-1.56-5.15-.07-10.52-.1-16.12-.1h-8.2v41.35h2.73c10.55 0 18.1-.03 22.66-.1a29.68 29.68 0 0 0 12.6-2.9c3.9-1.87 6.57-4.32 8-7.37a24.46 24.46 0 0 0 2.25-10.7zm-9.18-67.56c0-2.75-.62-5.5-1.85-8.25a11.62 11.62 0 0 0-6.35-6.13c-2.74-1.19-6.15-1.82-10.25-1.9-4.04-.14-9.74-.22-17.1-.22h-3.51v35.12h5.86c5.92 0 10.97-.11 15.14-.33 4.16-.23 7.45-.97 9.86-2.23 3.38-1.71 5.6-3.9 6.64-6.58a26.64 26.64 0 0 0 1.56-9.48z" fill="#fff"/>
	</g>
</svg>
